X:1
T:Black Jack Davy
M:2/4
L:1/8
K:C
 z2 E2| Gc c/2c/2 c| GF EE| Gc cc| G2 GF| Gc cc| GF E E/2G/2| FF F F/2F/2|\
 G2 G G/2G/2| FF F G/2G/2| FE E2|
